X:860
T:Dever the dancer
R:Slip Jig
O:Ireland
B:Ceol Rince 2 n100
B:Robin Williamson ... Fiddle Tunes
B:O'Neill's 1147
S:O'Neill's 1147
Z:Transcription:Stephen Foy, arr., chords:Mike Long
M:9/8
L:1/8
K:D
"Em"BEE BEF "G"G2A|"Em"BEE BAG "D"FGA|\
"Em"BEE BEF "G"G2A|"G"Bcd ABG "D"FED:|
"D"ded dAF "G"G2A|"D"ded def "A"gfe|\
"D"ded dAF "G"G2A|"G"Bcd ABG "D"FED|
"D"ded dAF "G"G2A|"D"ded def "A"gfe|\
"D"afd "A"ece "D"d2d|"D"Add "G"ABG "D"FED|]
